!!!OTL: "Wiegenlied. " HAIDL BUBAIDL IN GUADA RUA
!!!ARE: Europa, Mitteleuropa, Oesterreich
!!!SCT: Z1359
!!!YEM: Copyright 1995, estate of Helmut Schaffrath.
**kern
*ICvox
*Ivox
*M3/4
*k[f#]
*G:
=1
{8dd
8ee
8dd
8cc
8b
8a
=2
8g
8f#
8g
8a
8b
8cc
=3
2dd
4ee
=4
2.dd}
=5
{8dd
8ee
8dd
8cc
8b
8a
=6
8g
8f#
8g
8a
8b
8cc
=7
2dd
4ee
=8
2.dd}
=9
{2cc
4cc
=10
4cc
4dd
4ee
=11
4dd
4cc
4b
=12
2.a}
=13
{8dd
8ee
8dd
8cc
8b
8a
=14
8g
8f#
8g
8a
8b
8cc
=15
4b
4a
4g
=16
2a}
{8b
8a
=17
2g
4b
=18
2a
8b
8a
=19
2g
4a
=20
2g
4r}
==
!!!AGN: Kinder -, Wiegen - Lied
!!!ONB: ESAC (Essen Associative Code) Database: ZUCCAL
!!!AMT: simple triple
!!!AIN: vox
!!!EED: Helmut Schaffrath
!!!EEV: 1.0
*-
